svg/Filled/arrow-down-circle_filled.svg

<svg viewBox="0 0 24 24" xmlns="http://www.w3.org/2000/svg" width="24" height="24"><path fill-rule="evenodd" d="M12 23a11 11 0 1 1 0-22 11 11 0 0 1 0 22m-.6-6a2 2 0 0 0 1.23 0l.2-.08q.3-.15.48-.32.26-.22.54-.51l3-3 .06-.08a1 1 0 0 0-1.4-1.4l-.08.07-2.41 2.4V8a1 1 0 0 0-2 0v6.1l-2.43-2.42-.08-.07a1 1 0 0 0-1.4 1.4l.06.08 3 3q.28.29.54.5.19.19.48.33z" clip-rule="evenodd"/></svg>

<svg viewBox="0 0 24 24" xmlns="http://www.w3.org/2000/svg" width="24" height="24"><path fill-rule="evenodd" d="M12 23a11 11 0 1 1 0-22 11 11 0 0 1 0 22M11.4 17A2 2 0 0 0 12.63 17L12.83 16.92Q13.13 16.77 13.31 16.6Q13.57 16.38 13.85 16.09L16.91 13.01A1 1 0 0 0 15.51 11.61L13.02 14.08L13.02 8A1 1 0 0 0 11.02 8L11.02 14.1L8.51 11.61A1 1 0 0 0 7.11 13.01L10.17 16.09Q10.45 16.38 10.71 16.59Q10.9 16.78 11.19 16.92Z" clip-rule="evenodd"/></svg>
